X:63
T:63 The Haymaker's Dance
C:Aylmore MS
I:abc2nwc
M:6/8
L:1/8
K:C
G|c2e d2f|e2c dBG|c2e d2f|ege c2:|
c|e2g c'2g|ac'a gec|e2g c'2g|ac'a g2:|
e|f2a gec|d2f d2c|f2a gec|dfd c2:|


